public/images/icons/lightbulb.svg

<svg width="30" height="30" viewBox="0 0 30 30" fill="none" xmlns="http://www.w3.org/2000/svg">
<path d="M25.9091 13.6364H30V16.3636H25.9091V13.6364ZM0 13.6364H4.09091V16.3636H0V13.6364ZM16.3636 0V4.09091H13.6364V0H16.3636ZM5.34545 3.40909L8.25 6.32727L6.31364 8.25L3.40909 5.35909L5.34545 3.40909ZM21.75 6.31364L24.6409 3.40909L26.5909 5.35909L23.6864 8.25L21.75 6.31364ZM15 6.81818C17.17 6.81818 19.251 7.68019 20.7854 9.21458C22.3198 10.749 23.1818 12.83 23.1818 15C23.1818 18.0273 21.5318 20.6727 19.0909 22.0909V24.5455C19.0909 24.9071 18.9472 25.254 18.6915 25.5097C18.4358 25.7654 18.0889 25.9091 17.7273 25.9091H12.2727C11.9111 25.9091 11.5642 25.7654 11.3085 25.5097C11.0528 25.254 10.9091 24.9071 10.9091 24.5455V22.0909C8.46818 20.6727 6.81818 18.0273 6.81818 15C6.81818 12.83 7.68019 10.749 9.21458 9.21458C10.749 7.68019 12.83 6.81818 15 6.81818ZM17.7273 27.2727V28.6364C17.7273 28.998 17.5836 29.3449 17.3279 29.6006C17.0721 29.8563 16.7253 30 16.3636 30H13.6364C13.2747 30 12.9279 29.8563 12.6721 29.6006C12.4164 29.3449 12.2727 28.998 12.2727 28.6364V27.2727H17.7273ZM13.6364 23.1818H16.3636V20.2773C18.7227 19.6773 20.4545 17.5364 20.4545 15C20.4545 13.5534 19.8799 12.166 18.8569 11.1431C17.834 10.1201 16.4466 9.54545 15 9.54545C13.5534 9.54545 12.166 10.1201 11.1431 11.1431C10.1201 12.166 9.54545 13.5534 9.54545 15C9.54545 17.5364 11.2773 19.6773 13.6364 20.2773V23.1818Z" fill="#0B80C5"/>
</svg>

<svg xmlns="http://www.w3.org/2000/svg" width="30" height="30" fill="none"><path fill="#0B80C5" d="M25.91 13.636H30v2.728h-4.09v-2.728Zm-25.91 0h4.09v2.728H0v-2.728ZM16.364 0v4.09h-2.728V0h2.728ZM5.345 3.41 8.25 6.326 6.314 8.25 3.409 5.36l1.936-1.95ZM21.75 6.313l2.89-2.905 1.95 1.95-2.904 2.891-1.936-1.936ZM15 6.818A8.182 8.182 0 0 1 23.182 15a8.2 8.2 0 0 1-4.091 7.09v2.456a1.364 1.364 0 0 1-1.364 1.363h-5.454a1.364 1.364 0 0 1-1.364-1.363V22.09A8.2 8.2 0 0 1 6.82 15 8.182 8.182 0 0 1 15 6.818Zm2.727 20.455v1.363A1.364 1.364 0 0 1 16.364 30h-2.728a1.364 1.364 0 0 1-1.363-1.364v-1.363h5.454Zm-4.09-4.091h2.727v-2.905c2.359-.6 4.09-2.74 4.09-5.277a5.454 5.454 0 1 0-10.909 0 5.443 5.443 0 0 0 4.091 5.277v2.905Z"/></svg>
